X:0372
M:6/8
L:1/8
Q:3/8=120
K:G
  GFG A2B| cBA dBG|GFG A2B|cAF  G3:|
  BdB A2d|^ceG G2F|A2A Bgf|ed^c d3:|
  d2d dBc| ded dBc|A2c BGd|dcB  B2

